packages/ui-icons/svg/Line/move-left.svg

<svg viewBox="0 0 1920 1920" version="1.1" xmlns="http://www.w3.org/2000/svg">
    <path d="M114.06302,276 L114.06302,1644.75624 L1.13686838e-13,1644.75624 L1.13686838e-13,276 L114.06302,276 Z M853.168576,349.764555 L933.811131,430.40711 L460.791787,903.426453 L1920,903.426453 L1920,1017.37541 L460.791787,1017.37541 L933.811131,1490.39475 L853.168576,1571.03731 L242.475168,960.3439 L853.168576,349.764555 Z" stroke="none" stroke-width="1" fill-rule="evenodd"/>
</svg>

<svg viewBox="0 0 1920 1920" version="1.1" xmlns="http://www.w3.org/2000/svg">
    <path d="M242.475 960.344l610.694-610.58 80.642 80.643-473.02 473.02H1920v113.948H460.792l473.02 473.02-80.643 80.642-610.694-610.693zM0 1644.756V276h114.063v1368.756H0z" stroke="none" stroke-width="1" fill-rule="evenodd"/>
</svg>
